X: 142
T:Ceektixg Harsine
% Nottingham Music Database
T:Trad, via EF
M:6/8
K:D
P:A
|:G/2E|"A"A2B A2c|"D"d=ff fed|"A7"efa a"A#m"f2|"Bm"d3 -d2d||
"A"e3 -AAB|cAc ecc|"G"gbg "A7"agf|"C"a2g eef|"G7"g2g g3||


